Numix-Circle/48x48/apps/youdao-dict.svg

<?xml version="1.0" encoding="UTF-8" standalone="no"?>
<svg
   xmlns:dc="http://purl.org/dc/elements/1.1/"
   xmlns:cc="http://creativecommons.org/ns#"
   xmlns:rdf="http://www.w3.org/1999/02/22-rdf-syntax-ns#"
   xmlns:svg="http://www.w3.org/2000/svg"
   xmlns="http://www.w3.org/2000/svg"
   xmlns:xlink="http://www.w3.org/1999/xlink"
   xmlns:sodipodi="http://sodipodi.sourceforge.net/DTD/sodipodi-0.dtd"
   xmlns:inkscape="http://www.inkscape.org/namespaces/inkscape"
   viewBox="0 0 48 48"
   id="svg2"
   version="1.1"
   inkscape:version="0.91 r13725"
   sodipodi:docname="youdao-dict.svg">
  <metadata
     id="metadata30">
    <rdf:RDF>
      <cc:Work
         rdf:about="">
        <dc:format>image/svg+xml</dc:format>
        <dc:type
           rdf:resource="http://purl.org/dc/dcmitype/StillImage" />
      </cc:Work>
    </rdf:RDF>
  </metadata>
  <sodipodi:namedview
     pagecolor="#ffffff"
     bordercolor="#666666"
     borderopacity="1"
     objecttolerance="10"
     gridtolerance="10"
     guidetolerance="10"
     inkscape:pageopacity="0"
     inkscape:pageshadow="2"
     inkscape:window-width="1580"
     inkscape:window-height="840"
     id="namedview28"
     showgrid="true"
     inkscape:object-nodes="true"
     inkscape:snap-smooth-nodes="true"
     inkscape:zoom="2.4583333"
     inkscape:cx="67.96055"
     inkscape:cy="0.21435829"
     inkscape:window-x="10"
     inkscape:window-y="50"
     inkscape:window-maximized="0"
     inkscape:current-layer="svg2">
    <inkscape:grid
       type="xygrid"
       id="grid3358" />
  </sodipodi:namedview>
  <defs
     id="defs4">
    <linearGradient
       inkscape:collect="always"
       id="linearGradient4196">
      <stop
         style="stop-color:#30b2f5;stop-opacity:1;"
         offset="0"
         id="stop4198" />
      <stop
         style="stop-color:#1cabf4;stop-opacity:1"
         offset="1"
         id="stop4200" />
    </linearGradient>
    <linearGradient
       inkscape:collect="always"
       xlink:href="#linearGradient4196"
       id="linearGradient4202"
       x1="1.0000001"
       y1="24"
       x2="47"
       y2="24"
       gradientUnits="userSpaceOnUse"
       gradientTransform="matrix(0,1,-1,0,48,0)" />
  </defs>
  <g
     id="outter-shadow"
     transform="translate(0.00436415,0.00336415)">
    <path
       d="m 36.31,5 c 5.859,4.062 9.688,10.831 9.688,18.5 0,12.426 -10.07,22.5 -22.5,22.5 -7.669,0 -14.438,-3.828 -18.5,-9.688 1.037,1.822 2.306,3.499 3.781,4.969 4.085,3.712 9.514,5.969 15.469,5.969 12.703,0 23,-10.298 23,-23 0,-5.954 -2.256,-11.384 -5.969,-15.469 C 39.81,7.306 38.132,6.037 36.31,5 z m 4.969,3.781 c 3.854,4.113 6.219,9.637 6.219,15.719 0,12.703 -10.297,23 -23,23 -6.081,0 -11.606,-2.364 -15.719,-6.219 4.16,4.144 9.883,6.719 16.219,6.719 12.703,0 23,-10.298 23,-23 0,-6.335 -2.575,-12.06 -6.719,-16.219 z"
       style="opacity:0.05"
       id="path12" />
    <path
       d="m 41.28,8.781 c 3.712,4.085 5.969,9.514 5.969,15.469 0,12.703 -10.297,23 -23,23 -5.954,0 -11.384,-2.256 -15.469,-5.969 4.113,3.854 9.637,6.219 15.719,6.219 12.703,0 23,-10.298 23,-23 0,-6.081 -2.364,-11.606 -6.219,-15.719 z"
       style="opacity:0.1"
       id="path14" />
    <path
       d="M 31.25,2.375 C 39.865,5.529 46,13.792 46,23.505 c 0,12.426 -10.07,22.5 -22.5,22.5 -9.708,0 -17.971,-6.135 -21.12,-14.75 a 23,23 0 0 0 44.875,-7 23,23 0 0 0 -16,-21.875 z"
       style="opacity:0.2"
       id="path16" />
  </g>
  <path
     id="circle"
     style="fill:url(#linearGradient4202);fill-opacity:1"
     d="M 47,24 C 47,36.703 36.703,47 24,47 11.297,47 1.0000001,36.703 1.0000001,24 1.0000001,11.297 11.297,1.0000001 24,1.0000001 36.703,1.0000001 47,11.297 47,24 Z"
     inkscape:connector-curvature="0" />
  <path
     id="inner-shadow"
     style="opacity:0.1"
     d="m 40.034364,7.5343642 c 3.712,4.0839998 5.969,9.5139998 5.969,15.4689998 0,12.703 -10.297,23 -23,23 -5.954,0 -11.384,-2.256 -15.4689999,-5.969 4.1779999,4.291 10.0099999,6.969 16.4689999,6.969 12.703,0 23,-10.298 23,-23 0,-6.462 -2.677,-12.291 -6.969,-16.4689998 z" />
  <path
     id="path4204"
     d="m 21,14 a 7,7 0 0 0 -7,7 7,7 0 0 0 7,7 7,7 0 0 0 3.630859,-1.023438 l 2.699219,3.017579 c 0.103685,0.103746 0.272542,0.103746 0.376953,0 0,0 0.486412,-0.359052 1.19336,-1.066407 0.706949,-0.707354 1.066406,-1.195312 1.066406,-1.195312 0.102961,-0.103745 0.103686,-0.273208 0,-0.376953 L 26.957031,24.660156 A 7,7 0 0 0 28,21 7,7 0 0 0 21,14 Z m 8.958984,1.027344 c 0,0 -1.178843,1.833128 -1.384765,2.152344 0.607613,1.04108 0.86914,2.394531 0.86914,2.394531 l 0.931641,-1.648438 3.580078,1.34961 c -1.9142,4.980503 -1.847656,10.144531 -1.847656,10.144531 l -2.683594,2.683594 c 0,0 -5.161029,-0.06641 -10.138672,1.849609 L 17.9375,30.371094 19.585938,29.4375 c 0,0 -1.354048,-0.261178 -2.394532,-0.869141 -0.319033,0.205315 -2.15039,1.386719 -2.15039,1.386719 L 17.738281,38 c 0,0 3.861925,-3.54877 13.31836,-2.699219 l 4.246093,-4.248047 C 34.453671,21.590868 38,17.726563 38,17.726562 L 29.958984,15.027344 Z M 21,17 a 4,4 0 0 1 4,4 4,4 0 0 1 -4,4 4,4 0 0 1 -4,-4 4,4 0 0 1 4,-4 z"
     style="fill:#000000;fill-opacity:1;opacity:0.1"
     inkscape:connector-curvature="0" />
  <path
     style="fill:#ffffff"
     d="M 20 13 A 7 7 0 0 0 13 20 A 7 7 0 0 0 20 27 A 7 7 0 0 0 23.630859 25.976562 L 26.330078 28.994141 C 26.433763 29.097887 26.60262 29.097887 26.707031 28.994141 C 26.707031 28.994141 27.193443 28.635089 27.900391 27.927734 C 28.60734 27.22038 28.966797 26.732422 28.966797 26.732422 C 29.069758 26.628677 29.070483 26.459214 28.966797 26.355469 L 25.957031 23.660156 A 7 7 0 0 0 27 20 A 7 7 0 0 0 20 13 z M 28.958984 14.027344 C 28.958984 14.027344 27.780141 15.860472 27.574219 16.179688 C 28.181832 17.220768 28.443359 18.574219 28.443359 18.574219 L 29.375 16.925781 L 32.955078 18.275391 C 31.040878 23.255894 31.107422 28.419922 31.107422 28.419922 L 28.423828 31.103516 C 28.423828 31.103516 23.262799 31.037106 18.285156 32.953125 L 16.9375 29.371094 L 18.585938 28.4375 C 18.585938 28.4375 17.23189 28.176322 16.191406 27.568359 C 15.872373 27.773674 14.041016 28.955078 14.041016 28.955078 L 16.738281 37 C 16.738281 37 20.600206 33.45123 30.056641 34.300781 L 34.302734 30.052734 C 33.453671 20.590868 37 16.726563 37 16.726562 L 28.958984 14.027344 z M 20 16 A 4 4 0 0 1 24 20 A 4 4 0 0 1 20 24 A 4 4 0 0 1 16 20 A 4 4 0 0 1 20 16 z "
     id="path24" />
</svg>

<svg xmlns="http://www.w3.org/2000/svg" viewBox="0 0 48 48">
 <defs>
  <linearGradient id="linearGradient4202" x1="1" x2="47" gradientUnits="userSpaceOnUse" gradientTransform="matrix(0,1,-1,0,48,0)">
   <stop style="stop-color:#30b2f5;stop-opacity:1"/>
   <stop offset="1" style="stop-color:#1cabf4;stop-opacity:1"/>
  </linearGradient>
 </defs>
 <g transform="translate(0.00436415,0.00336415)">
  <path d="m 36.31,5 c 5.859,4.062 9.688,10.831 9.688,18.5 0,12.426 -10.07,22.5 -22.5,22.5 -7.669,0 -14.438,-3.828 -18.5,-9.688 1.037,1.822 2.306,3.499 3.781,4.969 4.085,3.712 9.514,5.969 15.469,5.969 12.703,0 23,-10.298 23,-23 0,-5.954 -2.256,-11.384 -5.969,-15.469 C 39.81,7.306 38.132,6.037 36.31,5 z m 4.969,3.781 c 3.854,4.113 6.219,9.637 6.219,15.719 0,12.703 -10.297,23 -23,23 -6.081,0 -11.606,-2.364 -15.719,-6.219 4.16,4.144 9.883,6.719 16.219,6.719 12.703,0 23,-10.298 23,-23 0,-6.335 -2.575,-12.06 -6.719,-16.219 z" style="opacity:0.05"/>
  <path d="m 41.28 8.781 c 3.712 4.085 5.969 9.514 5.969 15.469 0 12.703 -10.297 23 -23 23 -5.954 0 -11.384 -2.256 -15.469 -5.969 4.113 3.854 9.637 6.219 15.719 6.219 12.703 0 23 -10.298 23 -23 0 -6.081 -2.364 -11.606 -6.219 -15.719 z" style="opacity:0.1"/>
  <path d="M 31.25,2.375 C 39.865,5.529 46,13.792 46,23.505 c 0,12.426 -10.07,22.5 -22.5,22.5 -9.708,0 -17.971,-6.135 -21.12,-14.75 a 23,23 0 0 0 44.875,-7 23,23 0 0 0 -16,-21.875 z" style="opacity:0.2"/>
 </g>
 <path d="m 47 24 c 0 12.703 -10.297 23 -23 23 -12.703 0 -23 -10.297 -23 -23 0 -12.703 10.297 -23 23 -23 12.703 0 23 10.297 23 23" style="fill:url(#linearGradient4202);fill-opacity:1"/>
 <path d="m 40.03 7.534 c 3.712 4.084 5.969 9.514 5.969 15.469 0 12.703 -10.297 23 -23 23 -5.954 0 -11.384 -2.256 -15.469 -5.969 4.178 4.291 10.01 6.969 16.469 6.969 12.703 0 23 -10.298 23 -23 0 -6.462 -2.677 -12.291 -6.969 -16.469 z" style="opacity:0.1"/>
 <path d="m 21 14 c -3.866 0 -7 3.134 -7 7 0 3.866 3.134 7 7 7 1.281 -0.001 2.537 -0.356 3.631 -1.023 l 2.699 3.02 c 0.104 0.104 0.273 0.104 0.377 0 0 0 0.486 -0.359 1.193 -1.066 0.707 -0.707 1.066 -1.195 1.066 -1.195 0.103 -0.104 0.104 -0.273 0 -0.377 l -3.01 -2.695 c 0.679 -1.1 1.042 -2.367 1.043 -3.66 0.002 -3.866 -3.134 -7 -7 -7 m 8.959 1.027 c 0 0 -1.179 1.833 -1.385 2.152 0.608 1.041 0.869 2.395 0.869 2.395 l 0.932 -1.648 3.58 1.35 c -1.914 4.981 -1.848 10.145 -1.848 10.145 l -2.684 2.684 c 0 0 -5.161 -0.066 -10.139 1.85 l -1.348 -3.582 1.648 -0.934 c 0 0 -1.354 -0.261 -2.395 -0.869 -0.319 0.205 -2.15 1.387 -2.15 1.387 l 2.697 8.04 c 0 0 3.805 -3.85 13.262 -3 l 4 -4 c -0.849 -9.462 3 -13.273 3 -13.273 m -17 -0.727 c 2.209 0 4 1.791 4 4 0 2.209 -1.791 4 -4 4 -2.209 0 -4 -1.791 -4 -4 0 -2.209 1.791 -4 4 -4 z" style="fill:#000;opacity:0.1;fill-opacity:1"/>
 <path d="m 20 13 c -3.866 0 -7 3.134 -7 7 0 3.866 3.134 7 7 7 1.281 -0.001 2.537 -0.356 3.631 -1.023 l 2.699 3.02 c 0.104 0.104 0.273 0.104 0.377 0 0 0 0.486 -0.359 1.193 -1.066 0.707 -0.707 1.066 -1.195 1.066 -1.195 0.103 -0.104 0.104 -0.273 0 -0.377 l -3.01 -2.695 c 0.679 -1.1 1.042 -2.367 1.043 -3.66 0.002 -3.866 -3.134 -7 -7 -7 m 8.959 1.027 c 0 0 -1.179 1.833 -1.385 2.152 0.608 1.041 0.869 2.395 0.869 2.395 l 0.932 -1.648 3.58 1.35 c -1.914 4.981 -1.848 10.145 -1.848 10.145 l -2.684 2.684 c 0 0 -5.161 -0.066 -10.139 1.85 l -1.348 -3.582 1.648 -0.934 c 0 0 -1.354 -0.261 -2.395 -0.869 -0.319 0.205 -2.15 1.387 -2.15 1.387 l 2.697 8.04 c 0 0 3.805 -3.85 13.262 -3 l 4 -4 c -0.849 -9.462 3 -13.273 3 -13.273 m -17 -0.727 c 2.209 0 4 1.791 4 4 0 2.209 -1.791 4 -4 4 -2.209 0 -4 -1.791 -4 -4 0 -2.209 1.791 -4 4 -4 z" style="fill:#fff"/>
</svg>
